public/img/logo.svg

<svg height="2048" viewBox="0 0 2048 2048" width="2048" xmlns="http://www.w3.org/2000/svg"><g transform="translate(1024 1024)"><path d="m-588.888 310.802c72.284 81.886 165.672 133.722 263.809 133.722 97.61 0 191.526-51.836 263.8096-132.219-72.2836-81.135-165.6726-125.458-263.8096-125.458s-192.053 42.821-263.809 123.955z"/><path d="m61.4677 310.802c72.2833 81.886 165.6723 133.722 263.8093 133.722 97.61 0 191.526-51.836 263.81-132.219-72.284-81.135-165.673-125.458-263.81-125.458s-192.053 42.821-263.8093 123.955z"/><path d="m411.075-185.894c-109.015-6.79-211.704 22.593-281.097 91.9861-69.0206 69.0203-98.7759 172.0826-93.0488 280.0349 108.4828 6.258 205.8598-28.436 275.2538-97.8298 69.393-69.3935 105.523-166.0812 98.892-274.1912z"/><path d="m-410.876-185.894c109.014-6.79 211.703 22.593 281.097 91.9861 69.0199 69.0203 98.7752 172.0826 93.0481 280.0349-108.4831 6.258-205.8601-28.436-275.2541-97.8298-69.393-69.3935-105.523-166.0812-98.891-274.1912z"/><path d="m262.309-561.436c-2.758.434-5.533.866-8.324 1.299-94.164 13.825-161.5404 89.864-189.9521 178.191-2.4352 5.377 2.4353-44.548 27.5999-112.905 3.7176-9.85 7.8522-20.119 12.4562-30.731-16.6766-44.881-68.7193-88.289-104.08898618-92.751-40.68411382 4.417-102.04401382 58.688-108.71301382 109.803-70.697-60.581-152.066-71.309-152.066-71.309s-8.003 70.678 2.001 155.239c.667 9.466 2.001 18.301 4.002 27.767 20.009 124.317 80.034 265.673 254.77597007 278.925 174.07502993-13.252 234.76702993-155.87 254.77602993-278.925 2.001-9.466 2.668-18.932 4.002-27.767 6.905-59.241 5.231-110.664 3.531-136.836z"/></g></svg>

<?xml version="1.0" encoding="utf-8" ?>	<!-- Generator: Assembly 2.2 - http://assemblyapp.co -->	<svg version="1.1" xmlns="http://www.w3.org/2000/svg" xmlns:xlink="http://www.w3.org/1999/xlink" width="2048.00" height="2048.00" viewBox="0 0 2048.0 2048.0">		<g id="document" transform="matrix(1,0,0,1,1024.0,1024.0)">			<path d="M-588.888,310.802 C-516.604,392.688 -423.216,444.524 -325.079,444.524 C-227.469,444.524 -133.553,392.688 -61.2694,312.305 C-133.553,231.17 -226.942,186.847 -325.079,186.847 C-423.216,186.847 -517.132,229.668 -588.888,310.802 Z " fill="#000000" fill-opacity="1.00" />			<path d="M61.4677,310.802 C133.751,392.688 227.14,444.524 325.277,444.524 C422.887,444.524 516.803,392.688 589.087,312.305 C516.803,231.17 423.414,186.847 325.277,186.847 C227.14,186.847 133.224,229.668 61.4677,310.802 Z " fill="#000000" fill-opacity="1.00" />			<path d="M411.075,-185.894 C302.06,-192.684 199.371,-163.301 129.978,-93.9079 C60.9574,-24.8876 31.2021,78.1747 36.9292,186.127 C145.412,192.385 242.789,157.691 312.183,88.2972 C381.576,18.9037 417.706,-77.784 411.075,-185.894 Z " fill="#000000" fill-opacity="1.00" />			<path d="M-410.876,-185.894 C-301.862,-192.684 -199.173,-163.301 -129.779,-93.9079 C-60.7591,-24.8876 -31.0038,78.1747 -36.7309,186.127 C-145.214,192.385 -242.591,157.691 -311.985,88.2972 C-381.378,18.9037 -417.508,-77.784 -410.876,-185.894 Z " fill="#000000" fill-opacity="1.00" />			<path d="M262.309,-561.436 C259.551,-561.002 256.776,-560.57 253.985,-560.137 C159.821,-546.312 92.4446,-470.273 64.0329,-381.946 C61.5977,-376.569 66.4682,-426.494 91.6328,-494.851 C95.3504,-504.701 99.485,-514.97 104.089,-525.582 C87.4124,-570.463 35.3697,-613.871 1.38168e-05,-618.333 C-40.6841,-613.916 -102.044,-559.645 -108.713,-508.53 C-179.41,-569.111 -260.779,-579.839 -260.779,-579.839 C-260.779,-579.839 -268.782,-509.161 -258.778,-424.6 C-258.111,-415.134 -256.777,-406.299 -254.776,-396.833 C-234.767,-272.516 -174.742,-131.16 -2.99317e-05,-117.908 C174.075,-131.16 234.767,-273.778 254.776,-396.833 C256.777,-406.299 257.444,-415.765 258.778,-424.6 C265.683,-483.841 264.009,-535.264 262.309,-561.436 L262.309,-561.436 Z " fill="#000000" fill-opacity="1.00" />		</g>	</svg>
